X:1
T: Miss Campbell of Monzie
C:
R:Reel
Q: 232
K:C
M:4/4
L:1/8
|:e|c2 Gc ec GE|Fd Ec dD DB|c2 Gc Ec GC|FA DF EC Ce|
c2 Gc ec GE|Fd Ec dD DB|c2 Gc Ec GC|FA DF EC Cf|
ec gc ac gc|ec a1/2g1/2f1/2e1/2 fd df|gc ac gc ec|Bc df ec cf|
ec gc ac gc|eg ce fd df|ge cf af dc|Bc df ec c:|
